X: 25874
T: Matt Cranitch's Blackwater
R: polka
M: 2/4
K: Dmajor
|:Fd Bd/B/|AF ED|A,B, DE|FE EF|
Ad Bd/B/|AF EF|DF A/B/A/F/|ED D>E:|
|:FA Bc|d2 Ad|fg/f/ ed|fe e2|
dc/d/ ed|BA FE|DF A/B/A/F/|ED D>E:|

